X:1
T:Hanoi, 11.11.11 D
T:Hanoi, 11.11.11 D
T:Ira David Sankey, 1887
T:Public Domain Courtesy of the Cyber Hymnal™
C:Ira David Sankey, 1887
Z:Public Domain
Z:Courtesy of the Cyber Hymnal™
%%score ( 1 2 ) ( 3 4 )
L:1/8
Q:1/4=115
M:4/4
K:C
V:1 treble 
V:2 treble 
V:3 bass 
V:4 bass 
V:1
 C2 C2 E2 E2 | G4 G4 | [EG]2 [EG]2 [CE]2 [DG]2 | [Cc]8 | [Ec]2 [Ec]2 [Ec]2 [Ec]2 | [EB]4 [DB]4 | %6
 [CA]2 [Cc]2 [FB]2 [FA]2 | [EG]8 | [Ec]2 [EG]2 [EG]2 [E^G]2 | [FA]4 [GA]4 | %10
 [^Fd]2 [FA]2 [GB]2 [Ac]2 | B8 | [Ec]2 G2 [FA]2 [GB]2 | [Gc]4 [Ec]4 | [Ge]2 [Fd]2 [Ec]2 [DB]2 | %15
 [Ec]8 | [Gd]2 [Gd]2 [Gd]2 [_Be]2 | [Af]4 [Af]4 | [Ec]2 [Ec]2 [Ac]2 [Ad]2 | [^Ge]8 | %20
 [Ad]2 [Ac]2 [GB]2 [FA]2 | [EG]2 [Gc]2 [Ec]2 [Ad]2 | [Ge]4 [Fd]4 | [Ec]8 |] %24
V:2
 C2 C2 E2 E2 | G4 G4 | x8 | x8 | x8 | x8 | x8 | x8 | x8 | x8 | x8 | (G4 F4) | x2 G2 x4 | x8 | x8 | %15
 x8 | x8 | x8 | x8 | x8 | x8 | x8 | x8 | x8 |] %24
V:3
 C,2 C,2 E,2 E,2 | G,4 G,4 | [C,C]2 [C,C]2 [C,G,]2 [C,G,]2 | [A,,E,]8 | %4
 [A,,A,]2 [A,,A,]2 [A,,A,]2 [C,A,]2 | [E,^G,]4 [E,G,]4 | [F,A,]2 [F,A,]2 [F,B,]2 [F,C]2 | [C,C]8 | %8
 [C,G,]2 [C,C]2 [C,C]2 [C,C]2 | [F,C]4 [E,^C]4 | [B,,D]2 [B,,D]2 [B,,D]2 [B,,D]2 | [G,D]8 | %12
 [A,C]2 [E,C]2 [F,C]2 [F,D]2 | [E,C]4 [A,C]4 | [F,A,]2 [F,A,]2 G,2 [G,,G,]2 | [C,G,]8 | %16
 [G,B,]2 [G,B,]2 [G,B,]2 C2 | [F,C]4 [F,C]4 | [A,C]2 [A,C]2 [A,E]2 [F,A,]2 | [E,B,]8 | %20
 [F,A,]2 [F,C]2 [F,C]2 [F,C]2 | [C,C]2 [E,C]2 [A,C]2 [F,C]2 | [A,C]4 [G,,B,]4 | [C,C]8 |] %24
V:4
 C,2 C,2 E,2 E,2 | G,4 G,4 | x8 | x8 | x8 | x8 | x8 | x8 | x8 | x8 | x8 | x8 | x8 | x8 | %14
 x4 G,2 x2 | x8 | x6 C2 | x8 | x8 | x8 | x8 | x8 | x8 | x8 |] %24

